X: 663
T: Esîr-i Zülfünüm...
C: Şevki Bey
O: Turkey
F: http://compmusic.upf.edu/node/140
N: ussak--sarki--curcuna--esiri_zulfunum--sevki_bey
N: makam= ussak
N: form= sarki
N: usul= curcuna = 10/8
M: 10/8
L: 1/16
K: C _2/4B   
Q: 1/4=216
%%MIDI tuningsystem comma53
d6d4dc dec4B2  | c6c4cB cdB2 A2G2  | \
w:  ARANAĞME  |   | 
^3/4F2G2 A2B2 c2d2 e2f2 e2d2  | 
w:   | 
a2g2 f2e2 d2e2 c2d4z2  | d6d4dc dec4B2  | \
w:   |   | 
c6c4cB cdB2 A2G2  | 
w:   | 
^3/4F2G2 A2B2 c2d2 e2c2 B2A2  | A2B2 d2c2 B2B2 A2A6  | \
w:   |   | 
d6d4dc dec4B2  | 
w:  ARANAĞME  | 
c6c4cB cdB2 A2G2  | ^3/4F2G2 A2B2 c2d2 e2f2 e2d2  | \
w:   |   | 
a2g2 f2e2 d2e2 c2d4z2  | 
w:   | 
d6d4dc dec4B2  | c6c4cB cdB2 A2G2  | \
w:   |   | 
^3/4F2G2 A2B2 c2d2 e2c2 B2A2  | 
w:   | 
A2B2 d2c2 B2B2 A2A6  | z4 ^3/4F2G4A4A6  | \
w:   |  E sîr_ i  zül  | 
B4 c2B2 A2G2 ^3/4F2G6  | z4 B2c4c2 B2e4d2  | 
w:  fü nüm   |  ey   | 
d4 c2c2 B2B2 A2e4d2  | d4 f2e2 d2c2 B2A6  | \
w:  ey  *  yü *  zü  *  mâ  |  hım   SAZ  | 
z4 ^3/4F2G4A4A6  | B4 c2B2 A2G2 ^3/4F2G6  | 
w:  E sîr_ i  zül  |  fü nüm   | 
z4 B2c4c2 B2e4d2  | d4 c2c2 B2B2 A2e4d2  | \
w:  ey   |  ey  *  yü *  zü  *  mâ  | 
d4 f2e2 d2e2 c2d4z2  | 
w:  hım   SAZ  | 
z4 f2f2 e2e2 d2d4c2  | f4 e2e2 d2d2 c2d4z2  | \
w:  Ge ce  *  doğ  |  muş  *  be *  nim   | 
d6a4g2 f2e4d2  | 
w:  baht_ ı  si *  ya  | 
d2c2 e2d2 e2c2 B2d2 c2d2  | B2A2 c2B2 c2A2 c2B6  | \
w:  hım    |   | 
z4 G2A4A8B2  | 
w:  Ge ce  doğ  | 
c6d4d2 c2B2 A2G2  | z4 c2d4B3AG6  | e4 d2d2 c2c2 B2B4A2  | 
w:  muş  be nim   |  baht_  |  *  *  ı  *  si *  ya  | 
A4 _b2a2 g2^3/4f2 g2a6  | z4 g2a4a8g2  | \
w:  hım   SAZ  |  Gü zel  gün   | 
g6a4_b2 a2g4z2  | ^3/4f2_7/8e2 f4 e2d2 c2d4z2  | 
w:  gör me ye   |  var   | 
g4 ^3/4f2g4a8-a2  | a4 _b2a2 g2^3/4f2 _7/8e2d6  | \
w:  iş *  ti bâ  |  hım    | 
z4 g2a4a8g2  | g4 f2f2 e2f2 e2f6  | 
w:  Gü zel  gün   |  gör *  me *  ye   | 
f2e2 d4 c2B2 c2A4G2  | g4 e2e2 d2d2 c2e4d2  | \
w:  var   |  iş *  ti *  bâ  | 
d4 f2e2 d2e2 c2d4z2  | 
w:  hım   SAZ  | 
z4 f2f2 e2e2 d2d4c2  | f4 e2e2 d2d2 c2d4z2  | \
w:  Ge ce  *  doğ  |  muş  *  be *  nim   | 
d6a4g2 f2e4d2  | 
w:  baht_ ı  si *  ya  | 
d2c2 e2d2 e2c2 B2d2 c2d2  | B2A2 c2B2 c2A2 c2B6  | \
w:  hım    |   | 
z4 G2A4A8B2  | 
w:  Ge ce  doğ  | 
c6d4d2 c2B2 A2G2  | z4 c2d4B3AG6  | e4 d2d2 c2c2 B2B4A2  | 
w:  muş  be nim   |  baht_  |  *  *  ı  *  si *  ya  | 
A4 |
w:  hım    | 


